src/assets/svg/2-home/3-learning.svg

<svg width="38" height="40" viewBox="0 0 38 40" fill="none" xmlns="http://www.w3.org/2000/svg">
<path d="M19.2713 40C16.5727 37.8605 13.6233 36.2171 10.4231 35.0698C7.22286 33.9225 3.94479 33.3488 0.588867 33.3488V13.3953C3.84099 13.3953 7.06717 14.062 10.2674 15.3953C13.4676 16.7287 16.4689 18.5891 19.2713 20.9767C22.0737 18.5891 25.075 16.7287 28.2752 15.3953C31.4754 14.062 34.7016 13.3953 37.9537 13.3953V33.3488C34.5978 33.3488 31.3197 33.9225 28.1195 35.0698C24.9193 36.2171 21.9699 37.8605 19.2713 40ZM19.2713 36.4186C21.7277 34.8372 24.2619 33.5736 26.874 32.6279C29.4861 31.6822 32.1414 31.0853 34.84 30.8372V16.4186C32.4874 16.7597 30.005 17.6047 27.393 18.9535C24.7809 20.3023 22.0737 22.1705 19.2713 24.5581C16.2268 22.0465 13.459 20.1395 10.968 18.8372C8.477 17.5349 6.05521 16.7287 3.70261 16.4186V30.8372C6.40118 31.0853 9.05651 31.6822 11.6686 32.6279C14.2807 33.5736 16.8149 34.8372 19.2713 36.4186ZM19.427 14.3256C17.1782 14.3256 15.284 13.6357 13.7444 12.2558C12.2048 10.876 11.4351 9.17829 11.4351 7.16279C11.4351 5.14729 12.2048 3.44961 13.7444 2.06977C15.284 0.689922 17.1782 0 19.427 0C21.6758 0 23.57 0.689922 25.1096 2.06977C26.6491 3.44961 27.4189 5.14729 27.4189 7.16279C27.4189 9.17829 26.6491 10.876 25.1096 12.2558C23.57 13.6357 21.6758 14.3256 19.427 14.3256ZM19.427 11.5349C20.7763 11.5349 21.9266 11.1085 22.878 10.2558C23.8295 9.4031 24.3052 8.37209 24.3052 7.16279C24.3052 5.95349 23.8295 4.92248 22.878 4.06977C21.9266 3.21705 20.7763 2.7907 19.427 2.7907C18.0777 2.7907 16.9273 3.21705 15.9759 4.06977C15.0245 4.92248 14.5488 5.95349 14.5488 7.16279C14.5488 8.37209 15.0245 9.4031 15.9759 10.2558C16.9273 11.1085 18.0777 11.5349 19.427 11.5349V11.5349Z" fill="url(#paint0_linear_418_7)" fill-opacity="0.8"/>
<defs>
<linearGradient id="paint0_linear_418_7" x1="19" y1="15.5" x2="19.2713" y2="40" gradientUnits="userSpaceOnUse">
<stop stop-color="#FDA916"/>
<stop offset="1" stop-color="#E9E8E8" stop-opacity="0.6"/>
</linearGradient>
</defs>
</svg>

<svg width="38" height="40" fill="none" xmlns="http://www.w3.org/2000/svg"><path d="M19.271 40a30.994 30.994 0 0 0-8.848-4.93A28.934 28.934 0 0 0 .59 33.349V13.395c3.252 0 6.478.667 9.678 2 3.2 1.334 6.202 3.194 9.004 5.582 2.803-2.388 5.804-4.248 9.004-5.582 3.2-1.333 6.427-2 9.679-2V33.35c-3.356 0-6.634.574-9.835 1.72A30.994 30.994 0 0 0 19.271 40Zm0-3.581a37.798 37.798 0 0 1 7.603-3.791 31.893 31.893 0 0 1 7.966-1.79v-14.42c-2.353.342-4.835 1.187-7.447 2.535-2.612 1.35-5.32 3.218-8.122 5.605-3.044-2.511-5.812-4.418-8.303-5.72-2.491-1.303-4.913-2.11-7.265-2.42v14.42c2.698.247 5.354.844 7.966 1.79a37.798 37.798 0 0 1 7.602 3.79Zm.156-22.093c-2.249 0-4.143-.69-5.683-2.07s-2.309-3.078-2.309-5.093c0-2.016.77-3.713 2.31-5.093C15.283.69 17.177 0 19.426 0c2.249 0 4.143.69 5.683 2.07s2.309 3.077 2.309 5.093c0 2.015-.77 3.713-2.31 5.093-1.539 1.38-3.433 2.07-5.682 2.07Zm0-2.791c1.35 0 2.5-.427 3.451-1.28.951-.852 1.427-1.883 1.427-3.092 0-1.21-.476-2.24-1.427-3.093-.951-.853-2.102-1.28-3.451-1.28-1.35 0-2.5.427-3.451 1.28-.952.852-1.427 1.883-1.427 3.093s.476 2.24 1.427 3.093c.951.852 2.102 1.279 3.451 1.279Z" fill="url(#a)" fill-opacity=".8"/><defs><linearGradient id="a" x1="19" y1="15.5" x2="19.271" y2="40" gradientUnits="userSpaceOnUse"><stop stop-color="#FDA916"/><stop offset="1" stop-color="#E9E8E8" stop-opacity=".6"/></linearGradient></defs></svg>
